Adwaita++-Light/panel/16/network-cellular-gprs.svg

<svg height="16" width="16" xmlns="http://www.w3.org/2000/svg">
  <path d="m3 1s-2 0-2 2.06v9.94c0 2 2 2 2 2h10c2 0 2-2 2-2v-10s0-2-2-2zm3 2h4c2 0 2.05 2.35 2 2v1h-2v-1h-4v6h4v-1h-2v-2h4v3s0 2-2 2h-4s-2 0-2-2v-6c0-2 2-2 2-2z" fill="#444"/>
</svg>

<svg xmlns="http://www.w3.org/2000/svg" width="16" height="16" version="1.1">
 <defs>
  <style id="current-color-scheme" type="text/css">
   .ColorScheme-Text { color:#444444; } .ColorScheme-Highlight { color:#4285f4; }
  </style>
 </defs>
 <path style="fill:currentColor" class="ColorScheme-Text" d="M 3,1 C 3,1 1,1 1,3.06 V 13 C 1,15 3,15 3,15 H 13 C 15,15 15,13 15,13 V 3 C 15,3 15,1 13,1 Z M 6,3 H 10 C 12,3 12.05,5.35 12,5 V 6 H 10 V 5 H 6 V 11 H 10 V 10 H 8 V 8 H 12 V 11 C 12,11 12,13 10,13 H 6 C 6,13 4,13 4,11 V 5 C 4,3 6,3 6,3 Z"/>
</svg>
